public/images/file-maker/feature2.svg

<svg width="64" height="64" viewBox="0 0 64 64" fill="none" xmlns="http://www.w3.org/2000/svg">
<g clip-path="url(#clip0)">
<path d="M58.5395 33.2739C58.4445 30.2908 56.0007 27.921 53.0164 27.918H44.6666C44.657 27.9174 44.6474 27.9132 44.6413 27.906L42.2619 25.3022V17.0606C42.2582 14.0366 39.8271 11.576 36.8037 11.5351C36.7075 8.55204 34.2631 6.18217 31.2782 6.17856H22.9284C22.9188 6.17916 22.9091 6.17495 22.9031 6.16774L19.8732 2.85281C18.8253 1.70756 17.3452 1.05467 15.7929 1.05347H5.81147C2.75986 1.05707 0.287186 3.52974 0.28418 6.58135V35.7364C0.287186 38.7874 2.75986 41.2601 5.81147 41.2637H22.0218V57.4752C22.026 60.5262 24.4987 62.9989 27.5497 63.0019H58.4734C61.5244 62.9983 63.9965 60.5262 64.0001 57.4752V38.7982C63.9959 35.7736 61.5641 33.313 58.5395 33.2739ZM5.81147 39.109C3.9496 39.1072 2.44063 37.5982 2.43882 35.7364V6.58135C2.44063 4.71949 3.9496 3.21052 5.81147 3.20811H15.7929C16.7398 3.20871 17.6428 3.6073 18.2818 4.30587L21.3124 7.6208C21.7272 8.07409 22.3134 8.3326 22.9284 8.3326H31.2782C33.074 8.33501 34.5535 9.74118 34.6467 11.5339H15.1779C12.1275 11.5369 9.65423 14.009 9.65063 17.06V35.7364C9.64882 37.5976 8.14045 39.1066 6.27919 39.109H5.81147ZM22.0218 28.3196V39.1096H10.6528C11.4013 38.1441 11.8065 36.9574 11.8059 35.7364V17.0606C11.8083 15.1987 13.3166 13.6904 15.1785 13.6892H36.7358C38.597 13.691 40.1054 15.1993 40.1072 17.0606V23.4319C39.3136 23.0135 38.4299 22.7941 37.5323 22.7929H27.5497C24.4981 22.7959 22.0254 25.268 22.0218 28.3196ZM27.5497 60.8472C25.6878 60.8454 24.1788 59.3377 24.1764 57.4758V28.3196C24.1788 26.4577 25.6878 24.9499 27.5497 24.9481H37.5323C38.4786 24.9487 39.3816 25.3467 40.0212 26.0441L43.05 29.359C43.4654 29.8123 44.0516 30.0714 44.666 30.0726H53.0164C54.811 30.0738 56.2911 31.48 56.3849 33.2727H36.9161C33.8651 33.2757 31.393 35.7478 31.39 38.7988V57.4752C31.387 59.3371 29.8787 60.8454 28.0168 60.8472H27.5497ZM61.8454 57.4758C61.843 59.3371 60.3346 60.8454 58.4734 60.8472H32.394C32.4048 60.834 32.4145 60.8202 32.4253 60.8069C32.4421 60.7841 32.4583 60.7619 32.4752 60.739C32.5082 60.6945 32.5407 60.6488 32.572 60.6025C32.5882 60.5797 32.6044 60.5569 32.6201 60.5328C32.6525 60.4835 32.6844 60.4342 32.7157 60.3837C32.7283 60.3633 32.7409 60.3434 32.7535 60.3224C32.8395 60.1799 32.9189 60.0338 32.9922 59.8841L33.0211 59.821C33.0469 59.7663 33.0722 59.7116 33.0962 59.6563C33.107 59.6298 33.1184 59.6034 33.1293 59.5769C33.1503 59.5252 33.1714 59.4729 33.1906 59.42C33.2008 59.393 33.211 59.3653 33.2212 59.3383C33.2417 59.2823 33.2603 59.2264 33.2784 59.1699C33.2862 59.1459 33.294 59.1224 33.3018 59.0978C33.3517 58.9373 33.3938 58.7731 33.4287 58.6054C33.4341 58.5808 33.4383 58.5549 33.4431 58.5303C33.4545 58.4714 33.4653 58.4124 33.4743 58.3529C33.4792 58.3223 33.4834 58.2916 33.4876 58.2609C33.496 58.2056 33.5026 58.1497 33.5092 58.0938C33.5128 58.0631 33.5164 58.0307 33.5194 57.9994C33.5248 57.9399 33.5291 57.8804 33.5327 57.8209C33.5345 57.7932 33.5369 57.7656 33.5381 57.7379C33.5423 57.6507 33.5447 57.563 33.5447 57.4746V38.7982C33.5471 36.9369 35.0555 35.4286 36.9161 35.4268H58.4734C60.3346 35.4286 61.843 36.9369 61.8454 38.7982V57.4758Z" fill="#7F8284"/>
<path d="M4.24316 55.1375C2.89771 53.7957 2.14563 51.9711 2.15465 50.0707C2.15465 49.7858 2.04042 49.5128 1.83842 49.3114C1.63643 49.1106 1.36229 48.9982 1.07732 49C0.481551 49.003 2.4867e-06 49.487 2.4867e-06 50.0828C-0.00180107 52.5512 0.977528 54.9187 2.72277 56.6639C4.468 58.4098 6.83607 59.3897 9.30393 59.3879H15.5418L12.7126 62.2988C12.2978 62.7257 12.3074 63.408 12.7343 63.8222C13.1605 64.237 13.8429 64.2274 14.2577 63.8006L18.7786 59.1492C19.1838 58.732 19.1856 58.0689 18.7816 57.6505L14.2607 52.9588C13.8477 52.5308 13.1659 52.5182 12.7373 52.9306C12.3086 53.3436 12.296 54.0259 12.709 54.454L15.3873 57.2332H9.29251C7.39697 57.2374 5.57899 56.4824 4.24316 55.1375Z" fill="#FF6B00"/>
<path d="M59.8408 8.98962C61.1863 10.3315 61.9384 12.1561 61.9293 14.0564C61.9293 14.3414 62.0436 14.6143 62.2456 14.8157C62.4476 15.0165 62.7217 15.1289 63.0067 15.1271C63.6024 15.1241 64.084 14.6402 64.084 14.0444C64.0858 11.5759 63.1065 9.20846 61.3612 7.46322C59.616 5.71738 57.2479 4.73745 54.7801 4.73925L48.5422 4.73925L51.3713 1.82831C51.7862 1.40147 51.7765 0.719129 51.3497 0.304913C50.9235 -0.109904 50.2411 -0.100285 49.8263 0.326556L45.3054 4.97792C44.9002 5.39514 44.8984 6.05825 45.3024 6.47667L49.8233 11.1683C50.2363 11.5964 50.918 11.609 51.3467 11.1966C51.7753 10.7836 51.788 10.1012 51.3749 9.67317L48.6967 6.89389L54.7915 6.89389C56.687 6.88969 58.505 7.64477 59.8408 8.98962Z" fill="#FF6B00"/>
<path fill-rule="evenodd" clip-rule="evenodd" d="M41.3599 39.4236C41.5421 39.0648 41.9744 38.9052 42.3512 39.0576L53.6289 43.6207C53.9907 43.7671 54.1858 44.1553 54.0846 44.5274L52.6984 49.6237L57.522 51.6078C57.7967 51.7208 57.9818 51.9784 57.9987 52.2711C58.0156 52.5638 57.8614 52.8404 57.6014 52.9833L50.4744 56.9028C50.2399 57.0318 49.9544 57.0324 49.7193 56.9046L40.152 51.7031C39.9748 51.6068 39.8427 51.4462 39.7838 51.2555L37.0337 42.3543C36.9448 42.0665 37.0352 41.754 37.2649 41.5556C37.4946 41.3572 37.8209 41.3095 38.0991 41.4338L41.9524 43.1554C42.0044 42.9859 42.1153 42.8369 42.2694 42.737C42.4879 42.5953 42.7642 42.5714 43.0045 42.6733L46.3744 44.1019C46.6597 44.2228 46.8446 44.4994 46.8446 44.8054V45.1951L48.5627 45.9785C48.79 46.0821 48.9527 46.2872 48.9999 46.5295L50.2213 52.8102L52.4051 44.7817L42.4282 40.7449L41.9735 41.6405L40.5821 40.9555L41.3599 39.4236ZM49.0194 54.7742L47.5471 47.2035L45.7401 46.3796C45.4651 46.2542 45.2891 45.9829 45.2891 45.6845V45.3096L43.4479 44.529C43.3982 44.7098 43.2822 44.869 43.1183 44.973C42.8961 45.1141 42.6164 45.1343 42.3757 45.0267L39.0225 43.5286L41.1801 50.5122L49.0194 54.7742ZM51.3226 54.6817L55.4461 52.4141L52.2923 51.1168L51.3226 54.6817Z" fill="#FF6B00"/>
</g>
<defs>
<clipPath id="clip0">
<rect width="64" height="64" fill="white"/>
</clipPath>
</defs>
</svg>

<svg xmlns="http://www.w3.org/2000/svg" width="64" height="64" fill="none" xmlns:v="https://vecta.io/nano"><g clip-path="url(#A)"><path d="M58.54 33.274c-.095-2.983-2.539-5.353-5.523-5.356h-8.35c-.01-.001-.019-.005-.025-.012l-2.379-2.604v-8.242c-.004-3.024-2.435-5.485-5.458-5.526-.096-2.983-2.541-5.353-5.526-5.357h-8.35c-.01.001-.019-.004-.025-.011l-3.03-3.315c-1.048-1.145-2.528-1.798-4.08-1.799H5.811C2.76 1.057.287 3.53.284 6.581v29.155c.003 3.051 2.476 5.524 5.527 5.527h16.21v16.212c.004 3.051 2.477 5.524 5.528 5.527h30.924c3.051-.004 5.523-2.476 5.527-5.527V38.798c-.004-3.025-2.436-5.485-5.461-5.524zM5.811 39.109c-1.862-.002-3.371-1.511-3.373-3.373V6.581a3.38 3.38 0 0 1 3.373-3.373h9.981c.947.001 1.85.399 2.489 1.098l3.031 3.315a2.19 2.19 0 0 0 1.616.712h8.35c1.796.002 3.275 1.409 3.369 3.201H15.178c-3.05.003-5.524 2.475-5.527 5.526v18.676c-.002 1.861-1.51 3.37-3.371 3.373h-.468zm16.21-10.789v10.79H10.653a5.5 5.5 0 0 0 1.153-3.373V17.061c.002-1.862 1.511-3.37 3.373-3.371h21.557c1.861.002 3.37 1.51 3.371 3.371v6.371c-.794-.418-1.677-.638-2.575-.639H27.55c-3.052.003-5.524 2.475-5.528 5.527zm5.528 32.528c-1.862-.002-3.371-1.51-3.373-3.371V28.32c.002-1.862 1.511-3.37 3.373-3.372h9.983a3.38 3.38 0 0 1 2.489 1.096l3.029 3.315a2.2 2.2 0 0 0 1.616.714h8.35c1.795.001 3.275 1.407 3.369 3.2H36.916c-3.051.003-5.523 2.475-5.526 5.526v18.676c-.003 1.862-1.511 3.37-3.373 3.372h-.467zm34.296-3.371c-.002 1.861-1.511 3.37-3.372 3.371H32.394l.031-.04.05-.068.097-.136.048-.07.096-.149.038-.061.239-.438.029-.063.075-.165.033-.079.061-.157.031-.082.057-.168.023-.072c.05-.16.092-.325.127-.492l.014-.075.031-.177.013-.092.022-.167.01-.094.013-.178.005-.083.007-.263V38.798c.002-1.861 1.511-3.37 3.371-3.371h21.557c1.861.002 3.37 1.51 3.372 3.371v18.678z" fill="#7f8284"/><g fill="#ff6b00"><path d="M4.243 55.138a7.11 7.11 0 0 1-2.089-5.067A1.07 1.07 0 0 0 1.077 49C.482 49.003 0 49.487 0 50.083c-.002 2.468.978 4.836 2.723 6.581a9.3 9.3 0 0 0 6.581 2.724h6.238l-2.829 2.911c-.415.427-.405 1.109.022 1.523s1.109.405 1.523-.022l4.521-4.651a1.08 1.08 0 0 0 .003-1.499l-4.521-4.692a1.08 1.08 0 0 0-1.523-.028c-.429.413-.441 1.095-.028 1.523l2.678 2.779H9.293c-1.896.004-3.714-.751-5.049-2.096zM59.841 8.99a7.11 7.11 0 0 1 2.088 5.067 1.07 1.07 0 0 0 1.077 1.07c.596-.003 1.077-.487 1.077-1.083.002-2.468-.978-4.836-2.723-6.581a9.3 9.3 0 0 0-6.581-2.724h-6.238l2.829-2.911c.415-.427.405-1.109-.022-1.523S50.241-.1 49.826.327l-4.521 4.651a1.08 1.08 0 0 0-.003 1.499l4.521 4.692a1.08 1.08 0 0 0 1.523.028c.429-.413.441-1.095.028-1.523l-2.678-2.779h6.095c1.895-.004 3.714.751 5.049 2.096z"/><path fill-rule="evenodd" d="M41.36 39.424c.182-.359.614-.518.991-.366l11.278 4.563c.362.146.557.535.456.907l-1.386 5.096 4.824 1.984c.275.113.46.371.477.663s-.137.569-.397.712l-7.127 3.919a.79.79 0 0 1-.755.002l-9.567-5.202a.77.77 0 0 1-.368-.448l-2.75-8.901a.76.76 0 0 1 .231-.799c.23-.198.556-.246.834-.122l3.853 1.722c.052-.169.163-.319.317-.418a.79.79 0 0 1 .735-.064l3.37 1.429c.285.121.47.398.47.703v.39l1.718.783a.77.77 0 0 1 .437.551l1.221 6.281 2.184-8.029-9.977-4.037-.455.896-1.391-.685.778-1.532zm7.659 15.351l-1.472-7.571-1.807-.824c-.275-.125-.451-.397-.451-.695v-.375l-1.841-.781c-.05.181-.166.34-.33.444a.79.79 0 0 1-.743.054l-3.353-1.498 2.158 6.984 7.839 4.262zm2.303-.093l4.124-2.268-3.154-1.297-.97 3.565z"/></g></g><defs><clipPath id="A"><path fill="#fff" d="M0 0h64v64H0z"/></clipPath></defs></svg>
